assets/img/braze_icons/contrast-03.svg

<svg fill="none" height="24" viewBox="0 0 24 24" width="24" xmlns="http://www.w3.org/2000/svg"><path clip-rule="evenodd" d="m1 12c0-6.07513 4.92487-11 11-11 6.0751 0 11 4.92487 11 11 0 6.0751-4.9249 11-11 11-6.07513 0-11-4.9249-11-11zm5.57337 5.3933c5.97573 0 10.81993-4.8442 10.81993-10.81993 0-.88675-.1066-1.74858-.3078-2.57337 2.3704 1.70179 3.9145 4.48192 3.9145 7.6227 0 5.1789-4.1984 9.3773-9.3773 9.3773-3.14078 0-5.92091-1.5441-7.6227-3.9145.82479.2012 1.68662.3078 2.57337.3078z" fill="#801ed7" fill-rule="evenodd"/></svg>

<svg width="24" height="24" viewBox="0 0 24 24" fill="none" xmlns="http://www.w3.org/2000/svg">
<path fill-rule="evenodd" clip-rule="evenodd" d="M1 12C1 5.92487 5.92487 1 12 1C18.0751 1 23 5.92487 23 12C23 18.0751 18.0751 23 12 23C5.92487 23 1 18.0751 1 12ZM6.57337 17.3933C12.5491 17.3933 17.3933 12.5491 17.3933 6.57337C17.3933 5.68662 17.2867 4.82479 17.0855 4C19.4559 5.70179 21 8.48192 21 11.6227C21 16.8016 16.8016 21 11.6227 21C8.48192 21 5.70179 19.4559 4 17.0855C4.82479 17.2867 5.68662 17.3933 6.57337 17.3933Z" fill="#801ED7"/>
</svg>
